img/svg/responsibility-icon4.svg

<svg width="80" height="80" viewBox="0 0 80 80" fill="none" xmlns="http://www.w3.org/2000/svg">
<circle cx="40" cy="40" r="40" fill="#0055FF" fill-opacity="0.03"/>
<path fill-rule="evenodd" clip-rule="evenodd" d="M46.6935 38.9561C47.1511 38.7699 47.6429 38.6746 48.1394 38.6758C48.636 38.677 49.1272 38.7748 49.5838 38.9632C50.0398 39.1514 50.4519 39.4262 50.7958 39.7713L51.1958 40.169L51.5972 39.7742C51.9429 39.4308 52.3565 39.158 52.8134 38.9721C53.271 38.7859 53.7628 38.6906 54.2593 38.6918C54.7559 38.693 55.2471 38.7908 55.7037 38.9792C56.1603 39.1677 56.5729 39.443 56.917 39.7887C57.6145 40.4889 58.003 41.4234 58.0005 42.395C57.998 43.3667 57.6046 44.2994 56.9033 44.9963L56.9008 44.9987L51.6615 50.1516C51.5311 50.2799 51.3525 50.352 51.1663 50.3515C50.9802 50.3509 50.8021 50.2779 50.6724 50.1489L45.4649 44.9693L45.4627 44.9672C44.765 44.2669 44.3764 43.3323 44.3789 42.3606C44.3814 41.389 44.7748 40.4564 45.4759 39.7595M48.1359 40.0107C47.8249 40.01 47.5169 40.0697 47.2303 40.1863C46.9437 40.3029 46.6844 40.474 46.4677 40.6895L46.4675 40.6897C46.0162 41.1382 45.7629 41.7385 45.7613 42.3639C45.7597 42.9889 46.0094 43.59 46.4578 44.0406C46.4582 44.0409 46.4585 44.0412 46.4589 44.0416L51.1711 48.7285L55.9119 44.0659C55.9123 44.0655 55.9127 44.0651 55.9131 44.0647C56.3637 43.6164 56.6165 43.0165 56.6181 42.3916C56.6197 41.7662 56.3696 41.1647 55.9206 40.714L55.9203 40.7137C55.7048 40.4972 55.4464 40.3248 55.1604 40.2068C54.8744 40.0887 54.5668 40.0275 54.2558 40.0268C53.9448 40.026 53.6368 40.0857 53.3502 40.2023C53.0636 40.3189 52.8043 40.4901 52.5876 40.7055L52.5849 40.7082L51.6864 41.5919C51.556 41.7202 51.3775 41.7922 51.1913 41.7917C51.0052 41.7913 50.8271 41.7183 50.6974 41.5894L49.803 40.7003L49.8004 40.6977C49.5849 40.4812 49.3265 40.3088 49.0405 40.1908C48.7545 40.0727 48.4469 40.0115 48.1359 40.0107ZM46.6935 38.9561C46.236 39.1422 45.822 39.4154 45.4762 39.7593L46.6935 38.9561Z" fill="#0084FF"/>
<path fill-rule="evenodd" clip-rule="evenodd" d="M46.2662 27C46.5646 26.9972 46.8307 27.1911 46.925 27.4801L49.2078 34.4733C49.3279 34.8412 49.1332 35.2389 48.773 35.3616C48.4127 35.4843 48.0233 35.2855 47.9032 34.9175L46.2939 29.9874L39.3203 52.7775C39.2261 53.0853 38.9388 53.288 38.6236 53.269C38.3084 53.2501 38.0464 53.0143 37.9882 52.6974L36.1137 42.4814L33.9664 47.4136C33.8454 47.6915 33.5631 47.8582 33.2669 47.8268C32.9708 47.7953 32.7281 47.5727 32.6658 47.2754L30.8761 38.7419L29.4178 42.7133C29.3171 42.9873 29.0606 43.1689 28.774 43.1689H22.6876C22.3078 43.1689 22 42.8545 22 42.4666C22 42.0788 22.3078 41.7644 22.6876 41.7644H28.2975L30.4129 36.0036C30.5202 35.7116 30.803 35.5268 31.1075 35.5499C31.412 35.5729 31.6651 35.7982 31.729 36.1031L33.568 44.8717L35.7544 39.8498C35.8767 39.5689 36.1637 39.4019 36.4626 39.4376C36.7616 39.4734 37.003 39.7036 37.0585 40.0058L38.8313 49.6672L45.6165 27.4928C45.7055 27.2019 45.9679 27.0029 46.2662 27Z" fill="#0084FF"/>
</svg>

<svg width="80" height="80" viewBox="0 0 80 80" fill="none" xmlns="http://www.w3.org/2000/svg"><circle cx="40" cy="40" r="40" fill="#05F" fill-opacity=".03"/><path fill-rule="evenodd" clip-rule="evenodd" d="M46.694 38.956a3.814 3.814 0 012.89.007c.456.188.868.463 1.212.808l.4.398.401-.395c.346-.343.76-.616 1.216-.802a3.814 3.814 0 012.89.007c.457.189.87.464 1.214.81a3.679 3.679 0 011.084 2.606 3.68 3.68 0 01-1.098 2.601l-.002.003-5.24 5.153a.704.704 0 01-.495.2.704.704 0 01-.494-.203l-5.207-5.18-.002-.002a3.679 3.679 0 01-1.084-2.606 3.68 3.68 0 011.097-2.601m2.66.25a2.39 2.39 0 00-.906.176 2.369 2.369 0 00-1.469 2.178 2.368 2.368 0 00.698 1.678l4.712 4.686 4.74-4.662.002-.001a2.37 2.37 0 00.705-1.673 2.368 2.368 0 00-.697-1.678 2.32 2.32 0 00-.76-.507 2.385 2.385 0 00-2.573.498l-.003.003-.899.884a.703.703 0 01-.495.2.703.703 0 01-.494-.203l-.894-.889-.003-.002a2.32 2.32 0 00-.76-.507 2.387 2.387 0 00-.904-.18zm-1.443-1.054c-.457.186-.871.46-1.217.803l1.218-.803z" fill="#0084FF"/><path fill-rule="evenodd" clip-rule="evenodd" d="M46.266 27a.689.689 0 01.659.48l2.283 6.993a.706.706 0 01-.435.889.684.684 0 01-.87-.445l-1.61-4.93-6.973 22.79a.688.688 0 01-.696.492.693.693 0 01-.636-.572l-1.874-10.216-2.148 4.933a.686.686 0 01-.7.413.693.693 0 01-.6-.552l-1.79-8.533-1.458 3.971a.688.688 0 01-.644.456h-6.086a.695.695 0 01-.688-.702c0-.388.308-.703.688-.703h5.61l2.115-5.76a.687.687 0 01.695-.454.692.692 0 01.621.553l1.839 8.769 2.186-5.022a.685.685 0 01.709-.412c.299.035.54.266.596.568l1.772 9.661 6.785-22.174a.69.69 0 01.65-.493z" fill="#0084FF"/></svg>
